assets/icons/informations/signpost.svg

<svg viewBox="0 0 24 24" xmlns="http://www.w3.org/2000/svg">
<path d="M12 22C11.7833 22 11.6042 21.9292 11.4625 21.7875C11.3208 21.6458 11.25 21.4667 11.25 21.25V17.5H6.20001C6.05001 17.5 5.90835 17.4708 5.77501 17.4125C5.64168 17.3542 5.52501 17.275 5.42501 17.175L3.77501 15.525C3.65835 15.4083 3.57501 15.2833 3.52501 15.15C3.47501 15.0167 3.45001 14.8833 3.45001 14.75C3.45001 14.6167 3.47501 14.4833 3.52501 14.35C3.57501 14.2167 3.65835 14.0917 3.77501 13.975L5.42501 12.325C5.52501 12.225 5.64168 12.1458 5.77501 12.0875C5.90835 12.0292 6.05001 12 6.20001 12H11.25V9.75H5.00001C4.70001 9.75 4.44168 9.64167 4.22501 9.425C4.00835 9.20833 3.90001 8.95 3.90001 8.65V5.35C3.90001 5.05 4.00835 4.79167 4.22501 4.575C4.44168 4.35833 4.70001 4.25 5.00001 4.25H11.25V2.75C11.25 2.53333 11.3208 2.35417 11.4625 2.2125C11.6042 2.07083 11.7833 2 12 2C12.2167 2 12.3958 2.07083 12.5375 2.2125C12.6792 2.35417 12.75 2.53333 12.75 2.75V4.25H17.8C17.95 4.25 18.0917 4.27917 18.225 4.3375C18.3583 4.39583 18.475 4.475 18.575 4.575L20.225 6.225C20.3417 6.34167 20.425 6.46667 20.475 6.6C20.525 6.73333 20.55 6.86667 20.55 7C20.55 7.13333 20.525 7.26667 20.475 7.4C20.425 7.53333 20.3417 7.65833 20.225 7.775L18.575 9.425C18.475 9.525 18.3583 9.60417 18.225 9.6625C18.0917 9.72083 17.95 9.75 17.8 9.75H12.75V12H19C19.3 12 19.5583 12.1083 19.775 12.325C19.9917 12.5417 20.1 12.8 20.1 13.1V16.4C20.1 16.7 19.9917 16.9583 19.775 17.175C19.5583 17.3917 19.3 17.5 19 17.5H12.75V21.25C12.75 21.4667 12.6792 21.6458 12.5375 21.7875C12.3958 21.9292 12.2167 22 12 22Z" fill="inherit"/>
</svg>

<svg viewBox="0 0 24 24" xmlns="http://www.w3.org/2000/svg"><path d="M12 22a.7.7 0 0 1-.8-.8v-3.7h-5a1.1 1.1 0 0 1-.8-.3l-1.6-1.7a1 1 0 0 1-.3-.8v-.3c0-.2.2-.3.3-.4l1.6-1.7a1.1 1.1 0 0 1 .8-.3h5V9.7H5a1 1 0 0 1-.8-.3 1 1 0 0 1-.3-.8V5.4c0-.3.1-.5.3-.7.2-.2.5-.3.8-.3h6.3V2.8A.7.7 0 0 1 12 2a.7.7 0 0 1 .8.8v1.5h5.4l.4.3 1.6 1.6a1 1 0 0 1 .4.8l-.1.4-.3.4-1.6 1.6a1.1 1.1 0 0 1-.8.3h-5V12H19c.3 0 .6.1.8.3.2.2.3.5.3.8v3.3c0 .3-.1.6-.3.8a1 1 0 0 1-.8.3h-6.3v3.8a.7.7 0 0 1-.7.7Z" fill="inherit"/></svg>
